X:747
M:C|
L:1/8
K:E Minor
e|~B2 EF GABG|~F2 DF dFAF|~B2 EF GBdB|ADFA BE E:|
^deBd FDAF|GBEB eBdB|ADFA BE E||

